app/img/product/ic_click.svg

<svg width="30" height="29" viewBox="0 0 30 29" fill="none" xmlns="http://www.w3.org/2000/svg">
    <path d="M16.583 25.1767L12.6596 12.2801L25.9849 16.0493L23.4376 18.514C22.4221 19.4965 22.4221 21.1248 23.4376 22.1073L28.178 26.694L27.6047 27.2487L22.7615 22.5626C21.7923 21.6249 20.254 21.6249 19.2847 22.5626L16.583 25.1767ZM28.0638 27.6929L28.0627 27.6919L28.0638 27.6929Z"
          stroke="#7CEA57" stroke-width="3"/>
    <path d="M5.24015 3.4512C5.08232 3.29849 4.82979 3.29849 4.64039 3.4512L3.66183 4.39802C3.504 4.55073 3.504 4.79507 3.66183 4.97832L6.91316 8.09365C7.071 8.24636 7.32353 8.24636 7.51292 8.09365L8.49148 7.14683C8.64931 6.99412 8.64931 6.74978 8.49148 6.56653L5.24015 3.4512Z"
          fill="#022AF0"/>
    <path d="M5.39784 14.2021V12.8582C5.39784 12.6444 5.20845 12.4612 4.98748 12.4612H0.410362C0.189398 12.4612 0 12.6444 0 12.8582V14.2021C0 14.4159 0.189398 14.5991 0.410362 14.5991H4.98748C5.20845 14.5991 5.39784 14.4159 5.39784 14.2021Z"
          fill="#022AF0"/>
    <path d="M7.38639 18.9668C7.22856 18.8141 6.97602 18.8141 6.78663 18.9668L3.56686 22.1127C3.40903 22.2654 3.40903 22.5097 3.56686 22.693L4.54542 23.6398C4.70325 23.7925 4.95578 23.7925 5.14518 23.6398L8.36494 20.4939C8.52278 20.3412 8.52278 20.0969 8.36494 19.9136L7.38639 18.9668Z"
          fill="#022AF0"/>
    <path d="M20.676 8.18544C20.8339 8.33816 21.0864 8.33816 21.2758 8.18544L24.4956 5.07012C24.6534 4.91741 24.6534 4.67307 24.4956 4.48981L23.517 3.543C23.3592 3.39029 23.1066 3.39029 22.9172 3.543L19.6975 6.68887C19.5396 6.84158 19.5396 7.08592 19.6975 7.26917L20.676 8.18544Z"
          fill="#022AF0"/>
    <path d="M13.4157 5.22275H14.8047C15.0256 5.22275 15.215 5.03949 15.215 4.8257V0.397051C15.215 0.183254 15.0256 0 14.8047 0H13.4157C13.1948 0 13.0054 0.183254 13.0054 0.397051V4.8257C13.0054 5.03949 13.1948 5.22275 13.4157 5.22275Z"
          fill="#022AF0"/>
</svg>

<svg width="30" height="29" fill="none" xmlns="http://www.w3.org/2000/svg"><path d="M16.583 25.177 12.66 12.28l13.325 3.77-2.547 2.464a2.5 2.5 0 0 0 0 3.593l4.74 4.587-.573.555-4.843-4.686a2.5 2.5 0 0 0-3.477 0l-2.702 2.614Zm11.48 2.516v-.001Z" stroke="#7CEA57" stroke-width="3"/><path d="M5.24 3.451c-.158-.153-.41-.153-.6 0l-.978.947c-.158.153-.158.397 0 .58l3.251 3.116c.158.152.41.152.6 0l.978-.947c.158-.153.158-.397 0-.58L5.241 3.45ZM5.398 14.202v-1.344a.411.411 0 0 0-.41-.397H.41a.411.411 0 0 0-.41.397v1.344c0 .214.19.397.41.397h4.577c.221 0 .41-.183.41-.397ZM7.386 18.967c-.157-.153-.41-.153-.6 0l-3.22 3.146c-.157.152-.157.397 0 .58l.98.947c.157.152.41.152.6 0l3.219-3.146c.158-.153.158-.397 0-.58l-.979-.947ZM20.676 8.185c.158.153.41.153.6 0l3.22-3.115c.157-.153.157-.397 0-.58l-.979-.947c-.158-.153-.41-.153-.6 0l-3.22 3.146c-.157.153-.157.397 0 .58l.979.916ZM13.416 5.223h1.389c.22 0 .41-.184.41-.397V.397a.411.411 0 0 0-.41-.397h-1.39c-.22 0-.41.183-.41.397v4.429c0 .213.19.397.41.397Z" fill="#022AF0"/></svg>
